svg/talk.svg

<?xml version="1.0" encoding="UTF-8"?>
<svg xmlns="http://www.w3.org/2000/svg" xmlns:xlink="http://www.w3.org/1999/xlink" width="32" height="32" viewBox="0 0 32 32">
<path fill-rule="nonzero" fill="rgb(0.392157%, 0%, 0.784314%)" fill-opacity="1" d="M 16 0 C 7.402344 0 0.433594 6.96875 0.433594 15.566406 C 0.433594 19.230469 1.707031 22.589844 3.828125 25.246094 C 4.6875 26.320312 5.132812 28.039062 4.351562 29.050781 C 3.789062 29.773438 3.175781 30.269531 2.511719 30.355469 C 0.34375 30.648438 3.304688 33.242188 8.386719 31.261719 C 9.667969 30.761719 11.660156 30.5625 13.007812 30.832031 C 13.992188 31.03125 14.996094 31.128906 16 31.128906 C 24.597656 31.128906 31.566406 24.164062 31.566406 15.566406 C 31.566406 6.96875 24.597656 0 16 0 M 16 0 "/>
</svg>

<svg role="img" viewBox="0 0 32 32" xmlns="http://www.w3.org/2000/svg"><path d="M16 0C7.402 0 .434 6.969.434 15.566c0 3.664 1.273 7.024 3.394 9.68.86 1.074 1.305 2.793.524 3.805-.563.722-1.176 1.219-1.84 1.304-2.168.293.793 2.887 5.875.907 1.281-.5 3.273-.7 4.62-.43.985.2 1.99.297 2.993.297 8.598 0 15.566-6.965 15.566-15.563C31.566 6.97 24.598 0 16 0m0 0" fill="rgb(0.392157%, 0%, 0.784314%)"/></svg>
